X: 39468
T: Tarbolton, The
R: reel
M: 4/4
K: Edorian
A|Beed eeBA|GAAF GFEG|FDef dBAF|GGAG FAD z|
Beed efge|fedf edBA|GGGA FGA=c|BGGF GEEE||
Beed e z BA|GAAF GFEG|FDEF DBAF|GGAG FAD z|
BBBg efge|fedf edBA|G z BG FGA=c|BGAF gee z||
gfef gebe|gebe gfef|d z fd Adfd|BdAG FDD z|
GGGA FFFA|eeef gfed|B z =cB AGFA|AGAF geee||
g z ef gebe|gebe gfef|dafd adfd|B/=c/d AG FDD z|
GGGB FFFA|EEEF GFED|B z =cB AGFA|AGAF GEEE||
Beed eeBA|GAAF GFEG|FDEf d z AF|GGAG FAD z|
bbbg efge|fedf edBA|GBBB FGA=c|BGGF GEEE||
B z ed eeBA|GAAF GFEG|FDef dBAF|G z AG FAD z|
Beed efge|fedf edBA|G z BG FGA=c|BGAF Gee z||
gfef gebe|gebe gfef|d2 fd Adfd|BdAG FDD z|
GGGA FFFA|eeef gfed|B z =cB AGFA|AGAF geee||
g z ef gebe|gebe gfef|dafd adfd|BdAG FDD z|
GGBG FFFA|eeef gfed|B z =cB AGFA|AGAF GEE2||

